!!!SOCIAL_FUNCTION: man chief's songs
!!!PDT:	1929
!!!LING_GROUP: Caddoan
!!!LANG: Non-Tone
!!!REG: Oklahoma
!!!COM: Anon.
!!!OTL: Our Hearts Are Set in the Heavens
!!!ODT: <1920//
!!!MPN: Tsastawinahiigat [She led a phony into the ceremony, Effie Blain]
!!!MLC: Pawnee, Oklahoma, United States of America
!! Song was recorded either 1919 or 1920.
!!!AGN: monody
!!!AMT: simple triple
!!!RWG: Transcribed pitches, durations, and meters are only approximate.
!! Drum not recorded
**kern	**silbe	**words	**words
*ICvox	*LPawnee	*LPawnee	*LEnglish
*Ifemale	*	*	*
*clefG2	*	*	*
*k[b-e-a-]	*	*	*
*M3/4	*M3/4	*M3/4	*M3/4
*MM84	*MM84	*MM84	*MM84
*[A,B,B]	*[A,B,B]	*[A,B,B]	*[A,B,B]
*>A	*>A	*>A	*>A
4ee-	Ru	Ru	There
=1	=1	=1	=1
4b-	te	te	is
(12b-	ra	ra	have
12g	|	.	.
12g)	|	.	.
(8.g	ri-	rihuku	only
16f#)	|	.	.
=2	=2	=2	=2
4g	-hu-	.	.
4g	-ku	.	.
*>B	*>B	*>B	*>B
4b-	ru	ru	there
=3	=3	=3	=3
4g	te	te	is
(12g	ra	ra	have
12f#	|	.	.
12f#)	|	.	.
(8.g	ri-	rihuku	only
16e-)	|	.	.
=4	=4	=4	=4
4e-	-hu-	.	.
4e-	-ku	.	.
4e-	tsik-	tsiksu	spirit
=5	=5	=5	=5
4d	-su	.	.
(16e-	he	he	or
8.B-)	|	.	.
(16B-	ra	ra	have
8.G)	|	.	.
=6	=6	=6	=6
4G	tu-	tuta	upon
4G	-ta	.	.
4e-	a	a	and
=7	=7	=7	=7
4B-	ti	ti	this
(12B-	re	re	have
12G	|	.	.
12G)	|	.	.
=8	=8	=8	=8
(8.B-	wa-	wahake	expanse of the heavens
16G)	|	.	.
=9	=9	=9	=9
4G	-ha-	.	.
4.G	-ke	.	.
8G	.	.	.
=10	=10	=10	=10
2.G	.	.	.
=11	=11	=11	=11
2G	.	.	.
==:|!	==:|!	==:|!	==:|!
*-	*-	*-	*-
!!!HAO: [no description]
!!!HTX: It is there that our hearts are set,
!!!HTX: In the expanse of the heavens.
!!!CNT: Pawnee
!!!TXO: Pawnee
!!!OCY: United States
!!!OCL: Frances Densmore
!!!YOR: Frances Densmore, "Pawnee Music"
!!!YOR: Bulletin 93, page 90, No. 64
!!!PPR: Smithsonian Institution, Bureau of American Ethnology
!!!PPR: Government Printing Office
!!!PDT: 1926
!!!PPP: Washington, DC, United States of America
!!!YEC: Electronic Copyright 2000 David Huron
!!!YER: September 2000
!!!YEN: United States of America
!!!ENC: David Huron
!!!RDT: September 6, 2000
!!!EEV: Release 1.0
!!!AIN: vox
